X:245
T: Der treue Husar (19b), S. 83
N: T0134
O: Luxemburg
S: Singendes Volk, Esch-Alzette 1937 posth.]
N: Savelborn, fff Leny Goerens, 1907,
N: Vater des Autors, deutsche Schallplatten
R: Liebeslieder]
M: 3/4
L: 1/16
K: D
A2B2A2 | F6F2EEA2 | G6
A2d2c2 | B6GGB2B2 | A4z2
A2B2c2 | d6A2c2c2 | B4z2
B2B2B2 | A6G2G2A2 | F4z2
A2B2c2 | d6A2c2c2 | B4z2
B2B2B2 | A6G2G2A2 | F4z2

